Bloom-Colors/16x16/devices/audio-headphones.svg

<svg width="16" height="16" enable-background="new" version="1.1" xmlns="http://www.w3.org/2000/svg" xmlns:osb="http://www.openswatchbook.org/uri/2009/osb">
<title>Pop Symbolic Icon Theme</title>
<defs>
<filter id="filter7554" color-interpolation-filters="sRGB">
<feBlend in2="BackgroundImage" mode="darken"/>
</filter>
</defs>
<path d="m7.9996 2.0033c-3.324 0-6 2.676-6 6v4s0 2 2 2h0.5c0.831 0 1.5-0.669 1.5-1.5v-2c0-0.831-0.669-1.5-1.5-1.5h-0.5v-1c0-0.277 0.027-0.54773 0.0801-0.80859 0.37174-1.826 1.9809-3.1914 3.9199-3.1914 2.216 0 4 1.784 4 4v1h-0.5c-0.831 0-1.5 0.669-1.5 1.5v2c0 0.831 0.669 1.5 1.5 1.5h0.5s2 0 2-2v-4c0-3.324-2.676-6-6-6z" fill="#444" filter="url(#filter7554)"/>
</svg>

<svg xmlns="http://www.w3.org/2000/svg" width="16" height="16">
 <defs>
  <style id="current-color-scheme" type="text/css">
   .ColorScheme-Text { color:#666666; } .ColorScheme-Highlight { color:#4285f4; }
  </style>
 </defs>
 <path style="fill:currentColor" class="ColorScheme-Text" d="M 8 2 C 4.676 2 2 4.676 2 8 L 2 12 C 2 12 2 14 4 14 L 6 14 L 6 9 L 4 9 L 4 8 C 4 5.784 5.784 4 8 4 C 10.216 4 12 5.784 12 8 L 12 9 L 10 9 L 10 14 L 12 14 C 12 14 14 14 14 12 L 14 8 C 14 4.676 11.324 2 8 2 z"/>
</svg>
